lg/liftweb.svg

<svg viewBox="0 0 256 318" xmlns="http://www.w3.org/2000/svg" preserveAspectRatio="xMidYMid" height="1em" width="1em">
  <path d="M209.255 159.9c0 20.398-16.542 43.912-36.931 52.519l-135.402 57.17C16.533 278.205 0 268.653 0 248.255V112.846c0-20.39 16.533-43.896 36.922-52.511l135.402-57.17c20.389-8.607 36.931.945 36.931 21.342V159.9" fill="#4861B4"/>
  <path d="M238.19 44.996v134.946c0 20.389-16.534 43.904-36.931 52.51L65.857 289.623c-6.998 2.96-13.531 3.739-19.112 2.703v.456c0 20.381 16.534 29.941 36.923 21.334l135.41-57.17C239.467 248.331 256 224.824 256 204.427V69.025c0-13.39-7.147-22.055-17.81-24.029" fill="#25336D"/>
  <path d="M186.728 262.083c-17.437 0-32.221-6.202-44.368-18.639-12.139-12.429-18.208-27.371-18.208-44.825v-91.978l32.892-13.888L98.05 42.738l-53.672 97.575 35.157-14.842v73.107c0 29.261 10.538 54.169 31.599 74.699 7.827 7.62 17.966 14.831 26.921 19.623l70.271-30.817h-21.598" fill="#FFF"/>
</svg>

<svg viewBox="0 0 256 318" version="1.1" xmlns="http://www.w3.org/2000/svg" preserveAspectRatio="xMidYMid" height="1em" width="1em">
  <g>
    <path d="M209.255,159.9 C209.255,180.298 192.713,203.812 172.324,212.419 L36.922,269.589 C16.533,278.205 0,268.653 0,248.255 L0,112.846 C0,92.456 16.533,68.95 36.922,60.335 L172.324,3.165 C192.713,-5.442 209.255,4.11 209.255,24.507 L209.255,159.9" fill="#4861B4"/>
    <path d="M238.19,44.996 L238.19,179.942 C238.19,200.331 221.656,223.846 201.259,232.452 L65.857,289.623 C58.859,292.583 52.326,293.362 46.745,292.326 L46.745,292.782 C46.745,313.163 63.279,322.723 83.668,314.116 L219.078,256.946 C239.467,248.331 256,224.824 256,204.427 L256,69.025 C256,55.635 248.853,46.97 238.19,44.996" fill="#25336D"/>
    <path d="M186.728,262.083 C169.291,262.083 154.507,255.881 142.36,243.444 C130.221,231.015 124.152,216.073 124.152,198.619 L124.152,106.641 L157.044,92.753 L98.05,42.738 L44.378,140.313 L79.535,125.471 L79.535,198.578 C79.535,227.839 90.073,252.747 111.134,273.277 C118.961,280.897 129.1,288.108 138.055,292.9 L208.326,262.083 L186.728,262.083" fill="#FFFFFF"/>
  </g>
</svg>
